X:1
T:Sei still
T:Franz Magnus Böhme Bearb. von Engelbert Humperdinck
T:Henriette von Schorn, geb. Freiin von Stein
T:Sei still
T:CPDL   —   Creative Commons Attribution Non Commercial 3.0
T:CPDL   —   Creative Commons Attribution Non Commercial 3.0
C:Franz Magnus Böhme
Z:Henriette von Schorn, geb. Freiin von Stein
Z:CPDL   —   Creative Commons Attribution Non Commercial 3.0
%%score [ ( 1 2 ) ( 3 4 ) ]
L:1/8
M:2/2
K:A
V:1 treble-8 nm="Tenor"
V:2 treble-8 
V:3 bass nm="Bass"
V:4 bass 
V:1
!mf!!<(! c4 (3(A2 B2) c2!<)! |!>(! e4 c4!>)! | A4 B4 | c6 z2 |!<(! c4 (3(A2 B2) c2!<)! | %5
w: Ach, was _ ist|Le- ben|doch so|schwer,|wenn, was _ du|
!f!!>(! f4 e4!>)! | d4"^dim." ((c2 B2)) | !fermata!c8 ||[M:3/2]!f! !>!a4 !>!g4 !>!f4 | e8 c4 | %10
w: lieb hast,|ist nicht _|mehr!|A- ber sei|still, weil|
!p!!>(! f8 e4!>)! | d8"^dim." (c2 B2) | c8 B4 |!pp! !fermata!A12 || %14
w: Gott *|will, sei _|still, *|still!|
[K:C][M:2/2]"^Einzelne" A4!<(! (3(B2 c2) d2!<)! |!>(! f4 e4 | d4!>)! (c2 B2) | c6 z2 | %18
w: Ach, was _ ist|Ster- ben|doch so _|schwer,|
!<(! c4 (3(d2 e2) f2!<)! |!f!!>(! a4 g4!>)! | f4"^dim." ((e2 d2)) | e6 z2 ||[M:3/2]!p! g4 f4 e4 | %23
w: wenn, was _ du|lieb hast,|weint um- *|her!|A- ber sei|
!<(! d8 e4!<)! |!f! f8!>(! d4 | c8!>)!!p! A4 | c4 z4!pp! A4 | !fermata!e12 || %28
w: still, weil|Gott es|will, sei|still, sei|still!|
[K:A][M:2/2]"^Alle"!p! c4 (3A2 B2 c2 | e4 c4 |!<(! A4 B2 ^B2!<)! |!>(! c6!>)! z2 | %32
w: Ach, Le- ben und|Ster- ben|wär' nicht so|schwer,|
!<(! c4 (3(A2 B2) c2 | f4!<)!!>(! e4 | d4 ((=A2 B2))!>)! | !fermata!c8 || %36
w: wenn un- * ser|Herz nur|stil- le _|wär'.|
[M:3/2]!f! !>!a4 !>!g4 !>!f4 | e8 c4 |!p!!>(! f8 e4!>)! | d12 |!p!!<(! d4 c4 B4!<)! | %41
w: Da- rum sei|still, *|Gott *|will,|da- rum sei|
!>(! e8!>)![Q:1/4=90]"^rit." A4 | c8 B4 |!pp!"^<>" !fermata!A12 |] %44
w: still, *|Gott *|will.|
V:2
 A4 (3(A2 G2) A2 | B4 A4 | F4 F4 | A6 x2 | A4 (3(F2 G2) A2 | d4 c4 | B4 (A2 G2) | G8 || %8
w: ||||||||
[M:3/2] c4 c4 d4 | e8 A4 | A4 ^A8 | B8 =A4 | A4 G8 | E12 ||[K:C][M:2/2] A4 (3(^G2 A2) B2 | d4 c4 | %16
w: ||* es||* sei||||
 A4 ^G4 | A6 x2 | A4 (3(B2 c2) d2 | f4 e4 | c4 B4 | c6 x2 ||[M:3/2] c4 B4 c4 | d8 d4 | d8 _B4 | %25
w: |||||||||
 A8 A4 | G4 x4 A4 | B12 ||[K:A][M:2/2] A4 (3E2 G2 A2 | B4 A4 | A4 G2 G2 | A6 x2 | A4 (3(F2 G2) A2 | %33
w: ||||||||
 d4 c4 | B4 F4 | G8 ||[M:3/2] =e4 e4 c4 | d4 (c4 A4) | A4 ^A8 | B12 | B4 F4 G4 | A8 A4 | A4 G8 | %43
w: ||||* weil _|_ es|||* weil|* es|
 E12 |] %44
w: |
V:3
!mf!!<(! E,4 (3(E,2 E,2) E,2!<)! |!>(! E,4 E,4!>)! | F,4 D,4 | E,6 z2 |!<(! F,4 (3:2:2F,4 F,2!<)! | %5
w: |||||
!f!!>(! A,4 A,4!>)! | F,4"^dim." F,4 | !fermata!^E,8 ||[M:3/2]!f! !>!F,4 !>!G,4 !>!A,4 | A,8 A,4 | %10
w: |||||
!p!!>(! F,4 F,8!>)! | F,8"^dim." F,4 | E,8 D,4 |!pp! !fermata!C,12 || %14
w: ||||
[K:C][M:2/2] A,4-!<(! (3A,2 A,2 A,2!<)! |!>(! A,4 A,4 | F,4!>)! E,4 | A,6 z2 | %18
w: Ach, * was ist||||
!<(! A,4 (3:2:2A,4 A,2!<)! |!f!!>(! C4 C4!>)! | A,4"^dim." (G,2 F,2) | G,6 z2 || %22
w: ||||
[M:3/2]!p! !>!G,4 !>!G,4 !>!G,4 |!<(! B,4 _B,8!<)! |!f! (A,4 _B,4)!>(! F,4 | F,8!>)!!p! F,4 | %26
w: |* weil|||
 E,4 z4!pp! A,4 | !fermata!^G,12 ||[K:A][M:2/2]!p! E,4 (3E,2 E,2 E,2 | E,4 E,4 | %30
w: ||||
!<(! F,4 E,2 E,2!<)! |!>(! E,6!>)! z2 |!<(! F,4 (3:2:2F,4 F,2 | A,4!<)!!>(! =G,4 | F,4 F,4!>)! | %35
w: |||||
 !fermata!^E,8 ||[M:3/2]!f! !>!C4 !>!D4 !>!E4 | B,4 (A,4 =G,4) |!p!!>(! F,4 F,8!>)! | F,12 | %40
w: |||||
!p!!<(! F,4 E,4 E,4!<)! |!>(! E,4 (C,4!>)!"^dim." ^D,4) | E,8 =D,4 |!pp!"^<>" !fermata!C,12 |] %44
w: ||||
V:4
 A,,4 (3(C,2 B,,2) A,,2 | G,,4 A,,4 | D,4 B,,4 | A,,6 x2 | F,,4 (3:2:2F,4 F,2 | D,4 A,,4 | %6
w: ||||||
 B,,4 (C,2 D,2) | C,8 ||[M:3/2] F,4 =E,4 D,4 | C,8 F,4 | D,4 C,8 | B,,8 (C,2 D,2) | E,4 E,,8 | %13
w: |||||||
 A,,12 ||[K:C][M:2/2] z8 | z8 | z8 | z8 | A,4 (3:2:2A,4 A,2 | G,4 G,4 | G,4 G,,4 | C,6 x2 || %22
w: |||||||||
[M:3/2] E,4 D,4 C,4 | G,8 G,4 | D,4 _B,,8 | F,,8 F,4 | C,4 x4 F,4 | E,12 || %28
w: |* weil|Gott es|will, *|||
[K:A][M:2/2] A,,4 (3C,2 B,,2 A,,2 | G,,4 A,,4 | F,,4 E,,4 | A,,6 x2 | F,,4 (3:2:2F,,4 F,,2 | %33
w: ||wär' nicht|schwer,||
 A,,4 ^A,,4 | B,,4 D,4 | C,8 ||[M:3/2] C4 B,4 A,4 | G,4 A,8 | D,4 C,8 | B,,12 | B,,4 E,4 D,4 | %41
w: ||||||||
 C,4 (A,,4 F,,4) | E,,12 | A,,12 |] %44
w: * weil _|Gott|will.|

